app/assets/images/heroicons/solid/h1.svg

<svg width="24" height="24" viewBox="0 0 24 24" fill="none" xmlns="http://www.w3.org/2000/svg">
<path fill-rule="evenodd" clip-rule="evenodd" d="M2.24319 3.74316C2.65741 3.74316 2.99321 4.07897 2.99321 4.4932V11.2439H11.9934V4.49393C11.9934 4.07969 12.3292 3.74389 12.7434 3.74389C13.1577 3.74389 13.4934 4.07969 13.4934 4.49393V19.4954C13.4934 19.9096 13.1577 20.2454 12.7434 20.2454C12.3292 20.2454 11.9934 19.9096 11.9934 19.4954V12.744H2.99321V19.4946C2.99321 19.9089 2.65741 20.2447 2.24319 20.2447C1.82896 20.2447 1.49316 19.9089 1.49316 19.4946V4.4932C1.49316 4.07897 1.82896 3.74316 2.24319 3.74316ZM19.8479 8.70685C20.0918 8.83736 20.244 9.09153 20.244 9.36814V18.7441H21.744C22.1582 18.7441 22.494 19.0799 22.494 19.4941C22.494 19.9084 22.1582 20.2442 21.744 20.2442H17.244C16.8298 20.2442 16.494 19.9084 16.494 19.4941C16.494 19.0799 16.8298 18.7441 17.244 18.7441H18.744V10.7697L17.6601 11.4923C17.3155 11.7221 16.8498 11.629 16.62 11.2844C16.3902 10.9397 16.4833 10.474 16.828 10.2442L19.0779 8.74409C19.3081 8.59064 19.604 8.57633 19.8479 8.70685Z" fill="black"/>
</svg>

<svg xmlns="http://www.w3.org/2000/svg" viewBox="0 0 24 24" fill="currentColor" aria-hidden="true" data-slot="icon">
  <path fill-rule="evenodd" d="M2.243 3.743a.75.75 0 0 1 .75.75v6.75h9v-6.75a.75.75 0 1 1 1.5 0v15.002a.75.75 0 1 1-1.5 0v-6.751h-9v6.75a.75.75 0 1 1-1.5 0v-15a.75.75 0 0 1 .75-.75Zm17.605 4.964a.75.75 0 0 1 .396.661v9.376h1.5a.75.75 0 0 1 0 1.5h-4.5a.75.75 0 0 1 0-1.5h1.5V10.77l-1.084.722a.75.75 0 1 1-.832-1.248l2.25-1.5a.75.75 0 0 1 .77-.037Z" clip-rule="evenodd"/>
</svg>
